src/22/panel/megawarning.svg

<svg xmlns="http://www.w3.org/2000/svg" width="22" height="22" version="1.1">
 <defs>
  <style id="current-color-scheme" type="text/css">
   .ColorScheme-Text { color:#bebebe; } .ColorScheme-Highlight { color:#5294e2; }
  </style>
 </defs>
 <g style="fill:currentColor" class="ColorScheme-Text">
  <path style="fill:currentColor" class="ColorScheme-Text" d="M 11 3 C 6.5822865 3 3 6.578744 3 11 C 3 15.417713 6.5787438 19 11 19 C 11.326401 19 11.646718 18.975469 11.962891 18.9375 A 5 5 0 0 1 11 16 A 5 5 0 0 1 13 12.007812 L 13 11.5 L 12 13 L 10 13 L 9 11.5 L 9 14 L 7 14 L 7 8 L 9 8 L 11 11 L 13 8 L 15 8 L 15 11.105469 A 5 5 0 0 1 16 11 A 5 5 0 0 1 18.9375 11.960938 C 18.975324 11.645309 19 11.325879 19 11 C 19 6.5822866 15.421256 3 11 3 z"/>
 </g>
 <path style="fill:currentColor" class="ColorScheme-Highlight" d="M 16.279297 12.007812 C 15.510764 11.953491 14.717412 12.120931 14 12.535156 C 12.0868 13.639756 11.432609 16.0868 12.537109 18 C 13.641609 19.9131 16.0869 20.567491 18 19.462891 C 19.9132 18.358291 20.569344 15.9132 19.464844 14 C 18.774531 12.804312 17.560186 12.098349 16.279297 12.007812 z M 14.585938 13.878906 L 16 15.292969 L 17.414062 13.878906 L 18.121094 14.585938 L 16.707031 16 L 18.121094 17.414062 L 17.414062 18.121094 L 16 16.707031 L 14.585938 18.121094 L 13.878906 17.414062 L 15.292969 16 L 13.878906 14.585938 L 14.585938 13.878906 z"/>
</svg>

<svg xmlns="http://www.w3.org/2000/svg" width="22" height="22"><defs><style id="current-color-scheme" type="text/css">.ColorScheme-Text{color:#bebebe}</style></defs><g class="ColorScheme-Text" fill="currentColor"><path class="ColorScheme-Text" d="M11 3c-4.418 0-8 3.579-8 8 0 4.418 3.579 8 8 8 .326 0 .647-.025.963-.063A5 5 0 0 1 11 16a5 5 0 0 1 2-3.992V11.5L12 13h-2l-1-1.5V14H7V8h2l2 3 2-3h2v3.105A5 5 0 0 1 16 11a5 5 0 0 1 2.938.96c.037-.315.062-.634.062-.96 0-4.418-3.579-8-8-8z"/></g><path d="M16.28 12.008a4 4 0 1 0 0 0zm-1.694 1.87L16 15.294l1.414-1.414.707.707L16.707 16l1.414 1.414-.707.707L16 16.707l-1.414 1.414-.707-.707L15.293 16l-1.414-1.414.707-.707z" fill="currentColor" color="#5294e2"/></svg>
